X: 21705
T: Kilty Town
R: reel
M: 4/4
K: Gmajor
A|:BGGB d2cA|(3Bcd cA BGGB|AD ~D2 cD ~D2|~B3d cAFA
BGGB d2cA|(3Bcd cA B2AG|FAde ~f2eg|1 fdcA GBdc:|2 fdcA GABd||
|:~g3a gB ~B2|eBgB eB~B2|dega bgag|eaab agef|
~g2bg ~f2af|egfg edBd|cdec BcdB|AGAB cdef:|
|:~g3d BG~G2|FGAB c2BA|GBBA BABc|dBAG FDEF|
G2BG F2AF|EGFD EDB,D|C2EC B,2DB,|1 A,G,A,B, CDEd:|2 A,G,A,B, CDEA||

